X: 602
T: Jenny Picking Cockles   #2
R: reel
%S: s:2 b:12(6+6)
B: Francis O'Neill: "The Dance Music of Ireland" (1907) #602
Z: Frank Nordberg - http://www.musicaviva.com
F: http://www.musicaviva.com/abc/tunes/ireland/oneill-1001/0602/oneill-1001-0602-1.abc
N: Compacted by using labels and play order [JC]
P: Play ABAB CBCB
P: Play (A1A2)x2 + (BA2)x2
%m: Tn = (3n/o/n/
%m: ~n2 = o/4n/m/4n
M: C
L: 1/8
K: D
"^A"|::\
Addc AGEF |[1 GEcE dEcE :|[2 GEcE EDFG :|\
[3 GE-~E2 c2(cd) |] edcA AGEF | GEcE TEDD2 |]
"^B"|::\
f2fd e2ed |[1 cAAB cdeg :|[2 eage (ed)d2 :|\
[3 cAAB c3d |] edcA AGEF | GEcE (TED)D2 |]
